X: 1
T: String Quartet in C major opus 1 no 6 mvt 1
C: Franz Joseph Haydn
%%abc-version 2.0
%%abcx-abcm2ps-target-version 5.9.1 (29 Sep 2008)
%%abc-creator hum2abc beta
%%abcx-conversion-date 2021/02/14 14:38:26
%%abc-copyright Copyright (c) 1994, 2000 Center for Computer Assisted Research in the Humanities
%%abc-edited-by Frances Bennion
%%abcx-initial-encoding-date 1997/04/15
%%gracespace 0 6 6
%%humdrum-veritas 1717903018
%%humdrum-veritas-data 530839778
%%linebreak <none>
%%barnumbers 0
L: 1/8
M: 6/8
N: Derived from op01n6-01.krn
Q: "Presto assai"
%%staves [1 2 3 4]
V: 1
V: 2
V: 3 clef=alto
V: 4 clef=bass
K: C
[V:1]z4 zc [I:setbarnb1]|
[V:2]z4 zE |
[V:3]z4 zz |
[V:4]z4 zz |
[V:1]cgf eag |
[V:2]Eed cfe |
[V:3]C2z4 |
[V:4]C,2z4 |
[V:1]f3 e2g |
[V:2]d3 c2E |
[V:3]B3 c2z |
[V:4]G,3 C2z |
[V:1]Afe dcB |
[V:2]FAG FED |
[V:3]F3 G3 |
[V:4]F,3 G,3 |
[V:1]c2z3 c |
[V:2]C2z3 E |
[V:3]cGE C2z |
[V:4]CG,E, C,2z |
[V:1]cgf eag |
[V:2]Eed cfe |
[V:3]C2z4 |
[V:4]C,2z4 |
[V:1]f3 e2c' |
[V:2]d3 c2c |
[V:3]B3 c2G |
[V:4]G,3 C2E, |
[V:1]c'ba gfe |
[V:2]agf edc |
[V:3]C2z3 ^F |
[V:4]F,2z3 ^F, |
[V:1]d2z3 g |
[V:2]B2z4 |
[V:3]GDB, G,2B |
[V:4]G,D,B,, G,,2z |
[V:1]gbg ^f2d |
[V:2]z6 |
[V:3]BdB A2B |
[V:4]z6 |
[V:1]cBA [G,2B2D2]g |
[V:2][^f3A3D3] [g3B3D3] |
[V:3]AG^F D2B |
[V:4]D,3 G,,2z |
[V:1]gbg ^f2d |
[V:2]z6 |
[V:3]BdB A2B |
[V:4]z6 |
[V:1]cBA [G,2D2B2]d |
[V:2][^f3A3D3] [g2B2D2]G |
[V:3]AG^F D2B, |
[V:4]D,3 G,2B,, |
[V:1]ecA ^fdB |
[V:2]GAA ABB |
[V:3]CEz D^Fz |
[V:4]C,3 D,3 |
[V:1]gec a^fc |
[V:2]Bcc cdA |
[V:3]EGz ^FAz |
[V:4]E,3 ^F,3 |
[V:1]BdG AG^F |
[V:2]GBB, CB,A, |
[V:3]G2E C2D |
[V:4]G,2E, C,2D, |
[V:1]G2z4 |
[V:2]G,2d dDd |
[V:3]G,2B BDB |
[V:4]G,2z4 |
[V:1]d'6 |
[V:2]cDc BDB |
[V:3]ADA GDG |
[V:4]^F,3 G,3 |
[V:1]d'6 |
[V:2]ADd dDd |
[V:3]^FDB BDB |
[V:4]D,2z4 |
[V:1]d'6 |
[V:2]cDc BDB |
[V:3]ADA GDG |
[V:4]^F,3 G,3 |
[V:1]d'2d' d'bg |
[V:2]A2z G3- |
[V:3]^F2z B3 |
[V:4]D,3 B,3 |
[V:1]ec'b ag^f |
[V:2]Ged cBA |
[V:3]c3 d2D |
[V:4]C3 D2D, |
[V:1]gbg dcB |
[V:2]BdB G3 |
[V:3]G3 B3 |
[V:4]G,3 B,3 |
[V:1]Aed cBA |
[V:2]EcB AG^F |
[V:3]c2C D2D |
[V:4]C2C, D,2D, |
[V:1]G2z4 |
[V:2]G2z3 B |
[V:3]GDB, G,2G |
[V:4]G,D,B,, G,,2z |
[V:1]z6 |
[V:2]Bdc dfe |
[V:3]GBA Bdc |
[V:4]G,2z G,2z |
[V:1]d'2>b2 z2 |
[V:2]f2>F2 zc |
[V:3]B3 d2E |
[V:4]G,G,G, G,G,G, |
[V:1]z6 |
[V:2]ced egf |
[V:3]EcB ced |
[V:4]G,2z G,2z |
[V:1]c'4 z2 |
[V:2]g2>G2 zB |
[V:3]e3 E2G |
[V:4]G,G,G, G,G,G, |
[V:1]z6 |
[V:2]Bdc dfe |
[V:3]GBA Bdc |
[V:4]G,2z G,2z |
[V:1]d'2b d'2b |
[V:2]f3 f3 |
[V:3]B2d B2d |
[V:4]G,G,G, G,G,G, |
[V:1]c'cd ega |
[V:2]e2z4 |
[V:3]c2z4 |
[V:4]C,2z4 |
[V:1]_bcb aca |
[V:2]gcg fcf |
[V:3]c2z C2z |
[V:4]E,2E F2z |
[V:1]gAg fAf |
[V:2]eAe dAd |
[V:3]A2z A,2z |
[V:4]^C,2C, D2z |
[V:1]fdf ece |
[V:2]dGd cGc |
[V:3]G2z G,2z |
[V:4]B,,2B, C2z |
[V:1]dfg aAc |
[V:2]A2z c2A |
[V:3]F2z D3 |
[V:4]F,3 ^F,3 |
[V:1]B2g d2e |
[V:2]G2G B2c |
[V:3]DGG GGG |
[V:4]G,G,G, G,G,G, |
[V:1]d2g d2c |
[V:2]B2B B2A |
[V:3]GGG GG^F |
[V:4]G,G,G, G,G,G, |
[V:1]Bgg ggg |
[V:2]G2G D2E |
[V:3]D2B, B,2C |
[V:4]G,2z G,2z |
[V:1]ggg gg^f |
[V:2]D2G D2C |
[V:3]B,2B, B,2A, |
[V:4]G,2z G,2z |
[V:1]g2z3 c |
[V:2]B,2z3 E |
[V:3]G,2z4 |
[V:4]G,2z4 |
[V:1]cgf eag |
[V:2]Eed cfe |
[V:3]C2z4 |
[V:4]C,2z4 |
[V:1]f3 e2g |
[V:2]d3 c2E |
[V:3]B3 c2z |
[V:4]G,3 C2z |
[V:1]Afe dcB |
[V:2]FAG FED |
[V:3]F3 G3 |
[V:4]F,3 G,3 |
[V:1]c2z3 c |
[V:2]C2z3 E |
[V:3]cGE C2z |
[V:4]CG,E, C,2z |
[V:1]cgf eag |
[V:2]Eed cfe |
[V:3]C2z4 |
[V:4]C,2z4 |
[V:1]f3 e2c' |
[V:2]d3 c2c |
[V:3]B3 c2G |
[V:4]G,3 C2E, |
[V:1]c'ba gfe |
[V:2]agf edc |
[V:3]C2z3 ^F |
[V:4]F,2z3 ^F, |
[V:1]d2z3 c |
[V:2]B2z3 E |
[V:3]GDB, G,2z |
[V:4]G,D,B,, G,,2z |
[V:1]cec B2f |
[V:2]EcE D2d |
[V:3]z6 |
[V:4]z6 |
[V:1]faf e2c |
[V:2]dfd c2E |
[V:3][B3D3G,3] [c3E3G,3] |
[V:4]G,3 C2z |
[V:1]cec B2f |
[V:2]EcE D2d |
[V:3]z6 |
[V:4]z6 |
[V:1]faf e2G |
[V:2]dfd c2C |
[V:3][D3B3G,3] [c3G,3E3] |
[V:4]G,3 C2E, |
[V:1]Afd Bge |
[V:2]CDD DEE |
[V:3]FAz GBz |
[V:4]F,3 G,3 |
[V:1]caf dgf |
[V:2]EFF FGG |
[V:3]Acz Bdd |
[V:4]A,3 B,3 |
[V:1]egc dcB |
[V:2]GEE FED |
[V:3]c2A F2G |
[V:4]C2A, F,2G, |
[V:1]c2z4 |
[V:2]E2G GG,G |
[V:3]C2E EG,E |
[V:4]C,2z4 |
[V:1]g6- |
[V:2]FG,F EG,E |
[V:3]DG,D CG,C |
[V:4]B,3 C3 |
[V:1]g6- |
[V:2]DG,G GG,G |
[V:3]B,G,E EG,E |
[V:4]G,2z4 |
[V:1]g6 |
[V:2]FG,F EG,E |
[V:3]DG,D CG,C |
[V:4]B,3 C3 |
[V:1]g2g gec |
[V:2]D2z C3 |
[V:3]B,2z E3 |
[V:4]G,2z E,3 |
[V:1]Afe dcB |
[V:2]CAG FED |
[V:3]F3 G3 |
[V:4]F,3 G,3 |
[V:1]ccc c'c'c' |
[V:2]EEE ccc |
[V:3]ccc GGG |
[V:4]CCC E,E,E, |
[V:1]dag fed |
[V:2]Afe dcB |
[V:3]F2F G2G, |
[V:4]F,2F, G,2G,, |
[V:1]c2z4 |]
[V:2]c2z4 |]
[V:3]C2z4 |]
[V:4]C,2z4 |]

